assets/img/components/divider-header.svg

<svg width="580" height="145" viewBox="0 0 580 145" fill="none" xmlns="http://www.w3.org/2000/svg">
<path d="M13.03 41.62C13.03 23.6 27.64 9 45.65 9C63.66 9 78.27 23.61 78.27 41.62C78.27 59.64 63.66 74.24 45.65 74.24C27.64 74.24 13.03 59.64 13.03 41.62ZM507.34 0H435V37.35C433.71 16.51 416.59 0 395.66 0H145.08L144.08 0.92L0 145H507.34C547.47 145 580 112.54 580 72.5C580 32.46 547.47 0 507.34 0Z" fill="#286AD8"/>
<mask id="mask0_48_721" style="mask-type:alpha" maskUnits="userSpaceOnUse" x="0" y="0" width="580" height="145">
<path d="M13.03 41.62C13.03 23.6 27.64 9 45.65 9C63.66 9 78.27 23.61 78.27 41.62C78.27 59.64 63.66 74.24 45.65 74.24C27.64 74.24 13.03 59.64 13.03 41.62ZM507.34 0H435V37.35C433.71 16.51 416.59 0 395.66 0H145.08L144.08 0.92L0 145H507.34C547.47 145 580 112.54 580 72.5C580 32.46 547.47 0 507.34 0Z" fill="#286AD8"/>
</mask>
<g mask="url(#mask0_48_721)">
<g opacity="0.8" style="mix-blend-mode:multiply">
<path d="M229.06 53.875C229.88 53.875 230.59 54.3053 230.99 54.9453C231.28 55.1253 231.53 55.3752 231.71 55.665C232 55.845 232.25 56.0949 232.43 56.3848C232.72 56.5648 232.97 56.8155 233.15 57.1055C233.44 57.2854 233.69 57.5354 233.87 57.8252C234.16 58.0052 234.41 58.255 234.59 58.5449C234.88 58.7248 235.13 58.9748 235.31 59.2646C235.6 59.4446 235.85 59.6954 236.03 59.9854C236.32 60.1653 236.57 60.4152 236.75 60.7051C237.04 60.885 237.29 61.1349 237.47 61.4248C237.76 61.6047 238.009 61.8548 238.189 62.1445C238.479 62.3245 238.73 62.5752 238.91 62.8652C239.2 63.0452 239.45 63.2951 239.63 63.585C239.92 63.7649 240.17 64.0148 240.35 64.3047C240.64 64.4847 240.89 64.7354 241.07 65.0254C241.36 65.2054 241.61 65.4553 241.79 65.7451C242.08 65.9251 242.33 66.175 242.51 66.4648C242.8 66.6447 243.05 66.8948 243.229 67.1846C243.519 67.3646 243.77 67.6153 243.95 67.9053C244.24 68.0853 244.49 68.3351 244.67 68.625C244.96 68.8049 245.21 69.0549 245.39 69.3447C245.68 69.5247 245.93 69.7754 246.11 70.0654C246.4 70.2454 246.65 70.4953 246.83 70.7852C247.12 70.9651 247.37 71.215 247.55 71.5049C247.84 71.6848 248.09 71.9348 248.27 72.2246C248.56 72.4046 248.81 72.6553 248.99 72.9453C249.28 73.1253 249.53 73.3752 249.71 73.665C250 73.845 250.25 74.0949 250.43 74.3848C250.72 74.5648 250.97 74.8155 251.15 75.1055C251.44 75.2854 251.69 75.5354 251.87 75.8252C252.16 76.0052 252.41 76.255 252.59 76.5449C252.88 76.7248 253.13 76.9748 253.31 77.2646C253.6 77.4446 253.85 77.6954 254.03 77.9854C254.32 78.1653 254.57 78.4152 254.75 78.7051C255.04 78.885 255.29 79.1349 255.47 79.4248C255.76 79.6047 256.009 79.8548 256.189 80.1445C256.479 80.3245 256.73 80.5752 256.91 80.8652H293.79C294.61 80.8653 295.32 81.2948 295.72 81.9346C296.01 82.1146 296.259 82.3653 296.439 82.6553C296.729 82.8353 296.98 83.085 297.16 83.375C297.45 83.5549 297.7 83.8049 297.88 84.0947C298.17 84.2747 298.42 84.5254 298.6 84.8154C298.89 84.9954 299.14 85.2452 299.32 85.5352C299.61 85.7151 299.86 85.965 300.04 86.2549C300.33 86.4348 300.58 86.6848 300.76 86.9746C301.05 87.1546 301.299 87.4053 301.479 87.6953C301.769 87.8753 302.02 88.125 302.2 88.415C302.49 88.595 302.74 88.8449 302.92 89.1348C303.21 89.3148 303.46 89.5655 303.64 89.8555C303.93 90.0355 304.18 90.2852 304.36 90.5752C304.65 90.7552 304.9 91.0051 305.08 91.2949C305.37 91.4749 305.62 91.7248 305.8 92.0146C306.09 92.1946 306.34 92.4454 306.52 92.7354C306.81 92.9154 307.06 93.1651 307.24 93.4551C307.53 93.635 307.78 93.8849 307.96 94.1748C308.25 94.3547 308.5 94.6047 308.68 94.8945C308.97 95.0745 309.22 95.3252 309.4 95.6152C309.69 95.7952 309.94 96.0451 310.12 96.335C310.41 96.5149 310.66 96.7648 310.84 97.0547C311.13 97.2347 311.38 97.4854 311.56 97.7754C311.85 97.9554 312.1 98.2051 312.28 98.4951C312.57 98.6751 312.82 98.925 313 99.2148C313.29 99.3948 313.54 99.6447 313.72 99.9346C314.01 100.115 314.259 100.365 314.439 100.655C314.729 100.835 314.98 101.085 315.16 101.375C315.45 101.555 315.7 101.805 315.88 102.095C316.17 102.275 316.42 102.525 316.6 102.815C316.89 102.995 317.14 103.245 317.32 103.535C317.61 103.715 317.86 103.965 318.04 104.255C318.33 104.435 318.58 104.685 318.76 104.975C319.05 105.155 319.299 105.405 319.479 105.695C319.769 105.875 320.02 106.125 320.2 106.415C320.49 106.595 320.74 106.845 320.92 107.135C321.21 107.315 321.46 107.565 321.64 107.855C321.93 108.035 322.18 108.285 322.36 108.575C322.65 108.755 322.9 109.005 323.08 109.295C323.37 109.475 323.62 109.725 323.8 110.015C324.09 110.195 324.34 110.445 324.52 110.735C324.81 110.915 325.06 111.165 325.24 111.455C325.53 111.635 325.78 111.885 325.96 112.175C326.25 112.355 326.5 112.605 326.68 112.895C326.97 113.075 327.22 113.325 327.4 113.615C327.69 113.795 327.94 114.045 328.12 114.335C328.41 114.515 328.66 114.765 328.84 115.055C329.13 115.235 329.38 115.485 329.56 115.775C329.85 115.955 330.1 116.205 330.28 116.495C330.57 116.675 330.82 116.925 331 117.215C331.29 117.395 331.54 117.645 331.72 117.935C332.01 118.115 332.259 118.365 332.439 118.655C332.729 118.835 332.98 119.085 333.16 119.375C333.45 119.555 333.7 119.805 333.88 120.095C334.17 120.275 334.42 120.525 334.6 120.815C334.89 120.995 335.14 121.245 335.32 121.535C335.61 121.715 335.86 121.965 336.04 122.255C336.33 122.435 336.58 122.685 336.76 122.975C337.05 123.155 337.299 123.405 337.479 123.695C337.769 123.875 338.02 124.125 338.2 124.415C338.49 124.595 338.74 124.845 338.92 125.135C339.21 125.315 339.46 125.565 339.64 125.855C339.93 126.035 340.18 126.285 340.36 126.575C340.65 126.755 340.9 127.005 341.08 127.295C341.37 127.475 341.62 127.725 341.8 128.015C342.09 128.195 342.34 128.445 342.52 128.735C342.81 128.915 343.06 129.165 343.24 129.455C343.53 129.635 343.78 129.885 343.96 130.175C344.25 130.355 344.5 130.605 344.68 130.895C344.97 131.075 345.22 131.325 345.4 131.615C345.69 131.795 345.94 132.045 346.12 132.335C346.41 132.515 346.66 132.765 346.84 133.055C347.13 133.235 347.38 133.485 347.56 133.775C347.85 133.955 348.1 134.205 348.28 134.495C348.57 134.675 348.82 134.925 349 135.215C349.29 135.395 349.54 135.645 349.72 135.935C350.01 136.115 350.259 136.365 350.439 136.655C350.729 136.835 350.98 137.085 351.16 137.375C351.45 137.555 351.7 137.805 351.88 138.095C352.17 138.275 352.42 138.525 352.6 138.815C352.89 138.995 353.14 139.245 353.32 139.535C353.61 139.715 353.86 139.965 354.04 140.255C354.33 140.435 354.58 140.685 354.76 140.975C355.05 141.155 355.299 141.405 355.479 141.695C355.769 141.875 356.02 142.125 356.2 142.415C356.49 142.595 356.74 142.845 356.92 143.135C357.21 143.315 357.46 143.565 357.64 143.855C357.93 144.035 358.18 144.285 358.36 144.575C358.497 144.66 358.624 144.762 358.74 144.875H299.964C300.035 144.959 300.102 145.046 300.16 145.14C300.45 145.32 300.7 145.57 300.88 145.859C301.17 146.039 301.42 146.29 301.6 146.58C301.89 146.76 302.14 147.01 302.32 147.3C302.61 147.48 302.86 147.73 303.04 148.02C303.33 148.199 303.58 148.449 303.76 148.739C304.05 148.919 304.299 149.17 304.479 149.46C304.769 149.64 305.02 149.89 305.2 150.18C305.49 150.36 305.74 150.61 305.92 150.899C306.21 151.079 306.46 151.33 306.64 151.62C306.93 151.8 307.18 152.05 307.36 152.34C307.65 152.52 307.9 152.77 308.08 153.06C308.37 153.24 308.62 153.489 308.8 153.779C309.09 153.959 309.34 154.21 309.52 154.5C309.81 154.68 310.06 154.93 310.24 155.22C310.53 155.4 310.78 155.65 310.96 155.939C311.25 156.119 311.5 156.369 311.68 156.659C311.97 156.839 312.22 157.09 312.4 157.38C312.69 157.56 312.94 157.81 313.12 158.1C313.41 158.28 313.66 158.529 313.84 158.819C314.13 158.999 314.38 159.25 314.56 159.54C314.85 159.72 315.1 159.97 315.28 160.26C315.57 160.44 315.82 160.69 316 160.979C316.29 161.159 316.54 161.409 316.72 161.699C317.01 161.879 317.259 162.13 317.439 162.42C317.729 162.6 317.98 162.85 318.16 163.14C318.45 163.32 318.7 163.57 318.88 163.859C319.17 164.039 319.42 164.29 319.6 164.58C319.89 164.76 320.14 165.01 320.32 165.3C320.61 165.48 320.86 165.73 321.04 166.02C321.33 166.199 321.58 166.449 321.76 166.739C322.05 166.919 322.299 167.17 322.479 167.46C322.769 167.64 323.02 167.89 323.2 168.18C323.49 168.36 323.74 168.61 323.92 168.899C324.21 169.079 324.46 169.33 324.64 169.62C324.93 169.8 325.18 170.05 325.36 170.34C325.65 170.52 325.9 170.77 326.08 171.06C326.37 171.24 326.62 171.489 326.8 171.779C327.09 171.959 327.34 172.21 327.52 172.5C327.81 172.68 328.06 172.93 328.24 173.22C328.53 173.4 328.78 173.65 328.96 173.939C329.25 174.119 329.5 174.369 329.68 174.659C329.97 174.839 330.22 175.09 330.4 175.38C330.69 175.56 330.94 175.81 331.12 176.1C331.41 176.28 331.66 176.529 331.84 176.819C332.13 176.999 332.38 177.25 332.56 177.54C332.85 177.72 333.1 177.97 333.28 178.26C333.57 178.44 333.82 178.69 334 178.979C334.29 179.159 334.54 179.409 334.72 179.699C335.01 179.879 335.259 180.13 335.439 180.42C335.729 180.6 335.98 180.85 336.16 181.14C336.45 181.32 336.7 181.57 336.88 181.859C337.17 182.039 337.42 182.29 337.6 182.58C337.89 182.76 338.14 183.01 338.32 183.3C338.61 183.48 338.86 183.73 339.04 184.02C339.33 184.199 339.58 184.449 339.76 184.739C340.05 184.919 340.299 185.17 340.479 185.46C340.769 185.64 341.02 185.89 341.2 186.18C341.49 186.36 341.74 186.61 341.92 186.899C342.21 187.079 342.46 187.33 342.64 187.62C342.93 187.8 343.18 188.05 343.36 188.34C343.497 188.425 343.624 188.527 343.74 188.64H246.636C246.545 188.54 246.461 188.434 246.39 188.319C246.1 188.139 245.85 187.889 245.67 187.6L185.5 124.63C185.4 124.52 185.309 124.409 185.229 124.279C184.94 124.099 184.69 123.849 184.51 123.56C184.22 123.38 183.97 123.13 183.79 122.84C183.5 122.66 183.25 122.41 183.07 122.12C182.78 121.94 182.53 121.689 182.35 121.399C182.06 121.219 181.81 120.97 181.63 120.68C181.34 120.5 181.09 120.25 180.91 119.96C180.62 119.78 180.369 119.529 180.189 119.239C179.9 119.059 179.65 118.809 179.47 118.52C179.18 118.34 178.93 118.09 178.75 117.8C178.46 117.62 178.21 117.37 178.03 117.08C177.74 116.9 177.49 116.649 177.31 116.359C177.02 116.179 176.77 115.93 176.59 115.64C176.3 115.46 176.05 115.21 175.87 114.92C175.58 114.74 175.33 114.489 175.15 114.199C174.86 114.019 174.61 113.769 174.43 113.479C174.14 113.3 173.89 113.05 173.71 112.76C173.42 112.58 173.17 112.33 172.99 112.04C172.35 111.64 171.92 110.929 171.92 110.109C171.92 108.85 172.94 107.83 174.2 107.83H178.91C178.86 107.76 178.8 107.689 178.75 107.609C178.46 107.429 178.21 107.18 178.03 106.89C177.74 106.71 177.49 106.46 177.31 106.17C177.02 105.99 176.77 105.739 176.59 105.449C176.3 105.269 176.05 105.019 175.87 104.729C175.58 104.55 175.33 104.3 175.15 104.01C174.86 103.83 174.61 103.58 174.43 103.29C174.14 103.11 173.89 102.859 173.71 102.569C173.42 102.389 173.17 102.14 172.99 101.85C172.35 101.45 171.92 100.74 171.92 99.9199C171.92 98.6599 172.94 97.6396 174.2 97.6396H185.479C185.387 97.5385 185.301 97.4313 185.229 97.3154C184.94 97.1354 184.69 96.8847 184.51 96.5947C184.22 96.4147 183.97 96.1649 183.79 95.875C183.5 95.6951 183.25 95.4451 183.07 95.1553C182.78 94.9753 182.53 94.7246 182.35 94.4346C182.06 94.2546 181.81 94.0047 181.63 93.7148C181.34 93.5349 181.09 93.285 180.91 92.9951C180.62 92.8151 180.369 92.5654 180.189 92.2754C179.9 92.0954 179.65 91.8446 179.47 91.5547C179.18 91.3747 178.93 91.1249 178.75 90.835C178.46 90.655 178.21 90.4051 178.03 90.1152C177.74 89.9352 177.49 89.6845 177.31 89.3945C177.02 89.2146 176.77 88.9646 176.59 88.6748C176.3 88.4948 176.05 88.245 175.87 87.9551C175.58 87.7752 175.33 87.5252 175.15 87.2354C174.86 87.0554 174.61 86.8046 174.43 86.5146C174.14 86.3347 173.89 86.0848 173.71 85.7949C173.42 85.615 173.17 85.3651 172.99 85.0752C172.35 84.6752 171.92 83.9645 171.92 83.1445C171.92 81.8847 172.94 80.8652 174.2 80.8652H185.5C185.4 80.7552 185.309 80.6446 185.229 80.5146C184.94 80.3347 184.69 80.0848 184.51 79.7949C184.22 79.615 183.97 79.3651 183.79 79.0752C183.5 78.8953 183.25 78.6453 183.07 78.3555C182.78 78.1755 182.53 77.9248 182.35 77.6348C182.06 77.4548 181.81 77.2049 181.63 76.915C181.34 76.7351 181.09 76.4852 180.91 76.1953C180.62 76.0153 180.369 75.7646 180.189 75.4746C179.9 75.2946 179.65 75.0447 179.47 74.7549C179.18 74.5749 178.93 74.325 178.75 74.0352C178.46 73.8553 178.21 73.6052 178.03 73.3154C177.74 73.1354 177.49 72.8847 177.31 72.5947C177.02 72.4147 176.77 72.1649 176.59 71.875C176.3 71.6951 176.05 71.4451 175.87 71.1553C175.58 70.9753 175.33 70.7246 175.15 70.4346C174.86 70.2546 174.61 70.0048 174.43 69.7148C174.14 69.5349 173.89 69.285 173.71 68.9951C173.42 68.8152 173.17 68.5652 172.99 68.2754C172.35 67.8754 171.92 67.1647 171.92 66.3447C171.92 65.0849 172.94 64.0654 174.2 64.0654H178.91C178.86 63.9954 178.8 63.9247 178.75 63.8447C178.46 63.6648 178.21 63.4149 178.03 63.125C177.74 62.945 177.49 62.6953 177.31 62.4053C177.02 62.2253 176.77 61.9745 176.59 61.6846C176.3 61.5046 176.05 61.2548 175.87 60.9648C175.58 60.7849 175.33 60.535 175.15 60.2451C174.86 60.0652 174.61 59.8153 174.43 59.5254C174.14 59.3454 173.89 59.0947 173.71 58.8047C173.42 58.6247 173.17 58.3749 172.99 58.085C172.35 57.685 171.92 56.9752 171.92 56.1553C171.92 54.8953 172.94 53.875 174.2 53.875H229.06Z" fill="#1545BB"/>
</g>
</g>
<path d="M171.875 83.1586C171.875 81.8974 172.897 80.875 174.159 80.875H293.746C295.007 80.875 296.03 81.8974 296.03 83.1586C296.03 84.4198 295.007 85.4422 293.746 85.4422H174.159C172.897 85.4422 171.875 84.4198 171.875 83.1586Z" fill="#7AA5E7"/>
<path d="M171.92 100.048C171.92 98.7871 172.942 97.7646 174.204 97.7646H249.556C250.818 97.7646 251.84 98.7871 251.84 100.048C251.84 101.309 250.818 102.332 249.556 102.332H174.204C172.942 102.332 171.92 101.309 171.92 100.048Z" fill="#5187DF" fill-opacity="0.75"/>
<path d="M171.92 110.243C171.92 108.981 172.942 107.959 174.204 107.959H232.493C233.754 107.959 234.776 108.981 234.776 110.243C234.776 111.504 233.754 112.526 232.493 112.526H174.204C172.942 112.526 171.92 111.504 171.92 110.243Z" fill="#5187DF" fill-opacity="0.75"/>
<path d="M171.92 56.1586C171.92 54.8974 172.942 53.875 174.204 53.875H229.056C230.318 53.875 231.34 54.8974 231.34 56.1586C231.34 57.4198 230.318 58.4422 229.056 58.4422H174.204C172.942 58.4422 171.92 57.4198 171.92 56.1586Z" fill="#5187DF" fill-opacity="0.75"/>
<path d="M171.92 66.3529C171.92 65.0917 172.942 64.0693 174.204 64.0693H224.993C226.254 64.0693 227.276 65.0917 227.276 66.3529C227.276 67.6141 226.254 68.6366 224.993 68.6366H174.204C172.942 68.6366 171.92 67.6141 171.92 66.3529Z" fill="#5187DF" fill-opacity="0.75"/>
</svg>

<svg xmlns="http://www.w3.org/2000/svg" width="580" height="145" fill="none" viewBox="0 0 580 145"><path fill="#286ad8" d="M13.03 41.62C13.03 23.6 27.64 9 45.65 9s32.62 14.61 32.62 32.62c0 18.02-14.61 32.62-32.62 32.62s-32.62-14.6-32.62-32.62M507.34 0H435v37.35C433.71 16.51 416.59 0 395.66 0H145.08l-1 .92L0 145h507.34c40.13 0 72.66-32.46 72.66-72.5S547.47 0 507.34 0"/><mask id="a" width="580" height="145" x="0" y="0" maskUnits="userSpaceOnUse" style="mask-type:alpha"><path fill="#286ad8" d="M13.03 41.62C13.03 23.6 27.64 9 45.65 9s32.62 14.61 32.62 32.62c0 18.02-14.61 32.62-32.62 32.62s-32.62-14.6-32.62-32.62M507.34 0H435v37.35C433.71 16.51 416.59 0 395.66 0H145.08l-1 .92L0 145h507.34c40.13 0 72.66-32.46 72.66-72.5S547.47 0 507.34 0"/></mask><g mask="url(#a)"><path fill="#1545bb" d="M229.06 53.875c.82 0 1.53.43 1.93 1.07.29.18.54.43.72.72.29.18.54.43.72.72.29.18.54.43.72.72.29.18.54.43.72.72.29.18.54.43.72.72.29.18.54.43.72.72.29.18.54.43.72.72.29.18.54.43.72.72.29.18.54.43.72.72.29.18.539.43.719.72.29.18.541.43.721.72.29.18.54.43.72.72.29.18.54.43.72.72.29.18.54.43.72.72.29.18.54.43.72.72.29.18.54.43.72.72.29.18.54.43.719.72.29.18.541.43.721.72.29.18.54.43.72.72.29.18.54.43.72.72.29.18.54.43.72.72.29.18.54.43.72.72.29.18.54.43.72.72.29.18.54.43.72.72.29.18.54.43.72.72.29.18.54.43.72.72.29.18.54.43.72.72.29.18.54.43.72.72.29.18.54.43.72.72.29.18.54.43.72.72.29.18.54.43.72.72.29.18.54.43.72.72.29.18.54.43.72.72.29.18.54.43.72.72.29.18.539.43.719.72.29.18.541.43.721.72h36.88c.82 0 1.53.43 1.93 1.07.29.18.539.43.719.72.29.18.541.43.721.72.29.18.54.43.72.72.29.18.54.43.72.72.29.18.54.43.72.72.29.18.54.43.72.72.29.18.54.43.72.72.29.18.539.43.719.72.29.18.541.43.721.72.29.18.54.43.72.72.29.18.54.43.72.72.29.18.54.43.72.72.29.18.54.43.72.72.29.18.54.43.72.72.29.18.54.43.72.72.29.18.54.43.72.72.29.18.54.43.72.72.29.18.54.43.72.72.29.18.54.43.72.72.29.18.54.43.72.72.29.18.54.43.72.72.29.18.54.43.72.72.29.18.54.43.72.72.29.18.54.43.72.72.29.18.54.43.72.72.29.18.539.43.719.72.29.18.541.43.721.72.29.18.54.43.72.72.29.18.54.43.72.72.29.18.54.43.72.72.29.18.54.43.72.72.29.18.54.43.72.72.29.18.539.43.719.72.29.18.541.43.721.72.29.18.54.43.72.72.29.18.54.43.72.72.29.18.54.43.72.72.29.18.54.43.72.72.29.18.54.43.72.72.29.18.54.43.72.72.29.18.54.43.72.72.29.18.54.43.72.72.29.18.54.43.72.72.29.18.54.43.72.72.29.18.54.43.72.72.29.18.54.43.72.72.29.18.54.43.72.72.29.18.54.43.72.72.29.18.54.43.72.72.29.18.54.43.72.72.29.18.539.43.719.72.29.18.541.43.721.72.29.18.54.43.72.72.29.18.54.43.72.72.29.18.54.43.72.72.29.18.54.43.72.72.29.18.54.43.72.72.29.18.539.43.719.72.29.18.541.43.721.72.29.18.54.43.72.72.29.18.54.43.72.72.29.18.54.43.72.72.29.18.54.43.72.72.29.18.54.43.72.72.29.18.54.43.72.72.29.18.54.43.72.72.29.18.54.43.72.72.29.18.54.43.72.72.29.18.54.43.72.72.29.18.54.43.72.72.29.18.54.43.72.72.29.18.54.43.72.72.29.18.54.43.72.72.29.18.54.43.72.72.29.18.54.43.72.72.29.18.539.43.719.72.29.18.541.43.721.72.29.18.54.43.72.72.29.18.54.43.72.72.29.18.54.43.72.72.29.18.54.43.72.72.29.18.54.43.72.72.29.18.539.43.719.72.29.18.541.43.721.72.29.18.54.43.72.72.29.18.54.43.72.72.29.18.54.43.72.72q.206.129.38.3h-58.776q.108.125.196.265c.29.18.54.43.72.719.29.18.54.431.72.721.29.18.54.43.72.72.29.18.54.43.72.72.29.179.54.429.72.719.29.18.539.431.719.721.29.18.541.43.721.72.29.18.54.43.72.719.29.18.54.431.72.721.29.18.54.43.72.72.29.18.54.43.72.72.29.18.54.429.72.719.29.18.54.431.72.721.29.18.54.43.72.72.29.18.54.43.72.719.29.18.54.43.72.72.29.18.54.431.72.721.29.18.54.43.72.72.29.18.54.429.72.719.29.18.54.431.72.721.29.18.54.43.72.72.29.18.54.43.72.719.29.18.54.43.72.72.29.18.539.431.719.721.29.18.541.43.721.72.29.18.54.43.72.719.29.18.54.431.72.721.29.18.54.43.72.72.29.18.54.43.72.72.29.179.54.429.72.719.29.18.539.431.719.721.29.18.541.43.721.72.29.18.54.43.72.719.29.18.54.431.72.721.29.18.54.43.72.72.29.18.54.43.72.72.29.18.54.429.72.719.29.18.54.431.72.721.29.18.54.43.72.72.29.18.54.43.72.719.29.18.54.43.72.72.29.18.54.431.72.721.29.18.54.43.72.72.29.18.54.429.72.719.29.18.54.431.72.721.29.18.54.43.72.72.29.18.54.43.72.719.29.18.54.43.72.72.29.18.539.431.719.721.29.18.541.43.721.72.29.18.54.43.72.719.29.18.54.431.72.721.29.18.54.43.72.72.29.18.54.43.72.72.29.179.54.429.72.719.29.18.539.431.719.721.29.18.541.43.721.72.29.18.54.43.72.719.29.18.54.431.72.721.29.18.54.43.72.72q.206.129.38.3h-97.104a2 2 0 0 1-.246-.321c-.29-.18-.54-.43-.72-.719l-60.17-62.97c-.1-.11-.191-.221-.271-.351a2.3 2.3 0 0 1-.719-.719 2.25 2.25 0 0 1-.72-.72 2.25 2.25 0 0 1-.72-.72c-.29-.18-.54-.431-.72-.721-.29-.18-.54-.429-.72-.719a2.25 2.25 0 0 1-.72-.72 2.26 2.26 0 0 1-.721-.721 2.3 2.3 0 0 1-.719-.719 2.25 2.25 0 0 1-.72-.72 2.25 2.25 0 0 1-.72-.72c-.29-.18-.54-.431-.72-.721-.29-.18-.54-.429-.72-.719a2.25 2.25 0 0 1-.72-.72c-.29-.18-.54-.431-.72-.721a2.25 2.25 0 0 1-.72-.72 2.24 2.24 0 0 1-.72-.719 2.25 2.25 0 0 1-.72-.72 2.279 2.279 0 0 1 1.21-4.21h4.71c-.05-.07-.11-.141-.16-.221-.29-.18-.54-.429-.72-.719a2.25 2.25 0 0 1-.72-.72c-.29-.18-.54-.431-.72-.721a2.25 2.25 0 0 1-.72-.72 2.24 2.24 0 0 1-.72-.719 2.25 2.25 0 0 1-.72-.72c-.29-.18-.54-.431-.72-.721-.29-.18-.54-.429-.72-.719a2.28 2.28 0 0 1 1.21-4.21h11.279a2.3 2.3 0 0 1-.25-.325 2.26 2.26 0 0 1-.719-.72 2.25 2.25 0 0 1-.72-.72 2.25 2.25 0 0 1-.72-.72c-.29-.18-.54-.43-.72-.72-.29-.18-.54-.43-.72-.72a2.25 2.25 0 0 1-.72-.72c-.29-.18-.541-.43-.721-.72a2.26 2.26 0 0 1-.719-.72 2.25 2.25 0 0 1-.72-.72c-.29-.18-.54-.43-.72-.72-.29-.18-.54-.43-.72-.72a2.25 2.25 0 0 1-.72-.72 2.25 2.25 0 0 1-.72-.72 2.25 2.25 0 0 1-.72-.72c-.29-.18-.54-.43-.72-.72a2.25 2.25 0 0 1-.72-.72 2.25 2.25 0 0 1-.72-.72 2.279 2.279 0 0 1 1.21-4.21h11.3c-.1-.11-.191-.22-.271-.35a2.26 2.26 0 0 1-.719-.72 2.25 2.25 0 0 1-.72-.72 2.25 2.25 0 0 1-.72-.72c-.29-.18-.54-.43-.72-.72-.29-.18-.54-.43-.72-.72a2.25 2.25 0 0 1-.72-.72c-.29-.18-.541-.43-.721-.72a2.26 2.26 0 0 1-.719-.72c-.29-.18-.54-.43-.72-.72-.29-.18-.54-.43-.72-.72-.29-.18-.54-.43-.72-.72a2.25 2.25 0 0 1-.72-.72 2.25 2.25 0 0 1-.72-.72c-.29-.18-.54-.43-.72-.72a2.25 2.25 0 0 1-.72-.72 2.25 2.25 0 0 1-.72-.72 2.25 2.25 0 0 1-.72-.72 2.279 2.279 0 0 1 1.21-4.21h4.71c-.05-.07-.11-.14-.16-.22a2.25 2.25 0 0 1-.72-.72 2.25 2.25 0 0 1-.72-.72c-.29-.18-.54-.43-.72-.72a2.25 2.25 0 0 1-.72-.72 2.25 2.25 0 0 1-.72-.72 2.25 2.25 0 0 1-.72-.72c-.29-.18-.54-.43-.72-.72a2.25 2.25 0 0 1-.72-.72 2.28 2.28 0 0 1 1.21-4.21z" opacity=".8" style="mix-blend-mode:multiply"/></g><path fill="#7aa5e7" d="M171.875 83.159a2.283 2.283 0 0 1 2.284-2.284h119.587a2.284 2.284 0 0 1 0 4.567H174.159a2.283 2.283 0 0 1-2.284-2.283"/><path fill="#5187df" fill-opacity=".75" d="M171.92 100.048a2.283 2.283 0 0 1 2.284-2.283h75.352a2.283 2.283 0 1 1 0 4.567h-75.352a2.284 2.284 0 0 1-2.284-2.284M171.92 110.243a2.283 2.283 0 0 1 2.284-2.284h58.289a2.283 2.283 0 0 1 0 4.567h-58.289a2.283 2.283 0 0 1-2.284-2.283M171.92 56.159a2.283 2.283 0 0 1 2.284-2.284h54.852a2.283 2.283 0 1 1 0 4.567h-54.852a2.283 2.283 0 0 1-2.284-2.283M171.92 66.353a2.283 2.283 0 0 1 2.284-2.284h50.789a2.283 2.283 0 0 1 0 4.568h-50.789a2.284 2.284 0 0 1-2.284-2.284"/></svg>
